assets/img/logo.svg

<svg width="170" height="47" viewBox="0 0 170 47" fill="none" xmlns="http://www.w3.org/2000/svg">
<path fill-rule="evenodd" clip-rule="evenodd" d="M46.2719 23.136C46.2719 25.5541 45.9009 27.8857 45.2127 30.0767H1.05917C0.370994 27.8857 0 25.5541 0 23.136C0 10.3583 10.3583 0 23.136 0C35.9136 0 46.2719 10.3583 46.2719 23.136ZM5.55359 38.1743C4.3496 36.768 3.3114 35.2155 2.46928 33.5471H43.8026C42.9605 35.2155 41.9223 36.768 40.7183 38.1743H5.55359ZM9.25213 41.6447C13.1193 44.5502 17.9265 46.2719 23.136 46.2719C28.3454 46.2719 33.1526 44.5502 37.0198 41.6447H9.25213Z" fill="#FFC940"/>
<path d="M64.0657 30.3266C61.6781 30.3266 59.7971 29.5909 58.4229 28.1194L59.7763 26.2454C60.9701 27.5225 62.4346 28.1611 64.1698 28.1611C65.0999 28.1611 65.794 27.9737 66.2521 27.5989C66.724 27.2241 66.96 26.7799 66.96 26.2662C66.96 25.7387 66.6824 25.3223 66.1271 25.0169C65.5719 24.6976 64.8986 24.4478 64.1074 24.2673C63.3161 24.0868 62.5179 23.8717 61.7128 23.6218C60.9215 23.3719 60.2483 22.9486 59.693 22.3516C59.1378 21.7547 58.8601 20.9843 58.8601 20.0404C58.8601 18.8743 59.3252 17.9095 60.2552 17.1461C61.1992 16.3687 62.4207 15.98 63.92 15.98C66.0577 15.98 67.7929 16.6255 69.1255 17.9165L67.7304 19.728C66.6754 18.673 65.3359 18.1455 63.7117 18.1455C62.9899 18.1455 62.4138 18.3052 61.9835 18.6244C61.567 18.9298 61.3588 19.3463 61.3588 19.8738C61.3588 20.2208 61.5046 20.5123 61.7961 20.7483C62.1015 20.9843 62.4902 21.1787 62.9621 21.3313C63.4341 21.4702 63.9547 21.609 64.5238 21.7478C65.1068 21.8866 65.6829 22.0601 66.2521 22.2684C66.8351 22.4627 67.3626 22.7056 67.8346 22.9971C68.3065 23.2887 68.6883 23.6912 68.9798 24.2048C69.2852 24.7185 69.4379 25.3292 69.4379 26.0372C69.4379 27.2865 68.9867 28.3138 68.0844 29.1189C67.1821 29.924 65.8426 30.3266 64.0657 30.3266Z" fill="black"/>
<path d="M77.6992 30.3266C75.728 30.3266 74.2288 29.813 73.2015 28.7858C72.1882 27.7585 71.6815 26.3634 71.6815 24.6005V16.1882H74.1385V24.5172C74.1385 25.6416 74.4439 26.53 75.0547 27.1824C75.6794 27.8349 76.5609 28.1611 77.6992 28.1611C78.8374 28.1611 79.712 27.8349 80.3228 27.1824C80.9336 26.53 81.239 25.6416 81.239 24.5172V16.1882H83.696V24.5796C83.696 26.3565 83.1824 27.7585 82.1551 28.7858C81.1418 29.813 79.6565 30.3266 77.6992 30.3266Z" fill="black"/>
<path d="M98.6829 30.0767H96.33L89.0838 20.1653V30.0767H86.6476V16.1882H89.1462L96.2467 25.829V16.1882H98.6829V30.0767Z" fill="black"/>
<path d="M108.845 30.3266C106.818 30.3266 105.118 29.6603 103.744 28.3277C102.383 26.9812 101.703 25.2529 101.703 23.1429C101.703 21.0329 102.383 19.3116 103.744 17.979C105.118 16.6324 106.818 15.9592 108.845 15.9592C111.066 15.9592 112.822 16.8754 114.113 18.7077L112.656 19.5198C112.253 18.9229 111.712 18.437 111.032 18.0622C110.351 17.6874 109.623 17.5 108.845 17.5C107.318 17.5 106.041 18.0345 105.014 19.1034C104.001 20.1584 103.494 21.5049 103.494 23.1429C103.494 24.7809 104.001 26.1344 105.014 27.2033C106.041 28.2583 107.318 28.7858 108.845 28.7858C109.623 28.7858 110.351 28.6053 111.032 28.2444C111.712 27.8696 112.253 27.3768 112.656 26.766L114.134 27.5781C112.788 29.4104 111.025 30.3266 108.845 30.3266Z" fill="black"/>
<path d="M126.415 30.0767H124.374L120.834 24.5588H118.065V30.0767H116.337V16.1882H121.917C123.208 16.1882 124.256 16.57 125.061 17.3335C125.866 18.0969 126.269 19.1103 126.269 20.3735C126.269 21.5673 125.922 22.5182 125.228 23.2262C124.534 23.9341 123.68 24.3298 122.667 24.4131L126.415 30.0767ZM121.709 23.0388C122.528 23.0388 123.194 22.7889 123.708 22.2892C124.221 21.7894 124.478 21.1509 124.478 20.3735C124.478 19.5962 124.221 18.9645 123.708 18.4787C123.194 17.979 122.528 17.7291 121.709 17.7291H118.065V23.0388H121.709Z" fill="black"/>
<path d="M138.104 30.0767H129.005V16.1882H138.104V17.7291H130.733V22.2059H137.959V23.7467H130.733V28.5359H138.104V30.0767Z" fill="black"/>
<path d="M145.607 30.0767H140.86V16.1882H145.607C147.731 16.1882 149.446 16.8476 150.751 18.1664C152.069 19.4851 152.729 21.1439 152.729 23.1429C152.729 25.1557 152.069 26.8146 150.751 28.1194C149.446 29.4243 147.731 30.0767 145.607 30.0767ZM145.607 28.5359C147.245 28.5359 148.543 28.0223 149.501 26.995C150.459 25.9678 150.938 24.6838 150.938 23.1429C150.938 21.5882 150.466 20.2972 149.522 19.2699C148.578 18.2427 147.273 17.7291 145.607 17.7291H142.588V28.5359H145.607Z" fill="black"/>
<path d="M157.168 30.0767H155.44V16.1882H157.168V30.0767Z" fill="black"/>
<path d="M165.585 30.0767H163.857V17.7291H159.464V16.1882H170V17.7291H165.585V30.0767Z" fill="black"/>
</svg>

<svg width="170" height="47" fill="none" xmlns="http://www.w3.org/2000/svg"><path fill-rule="evenodd" clip-rule="evenodd" d="M46.272 23.136c0 2.418-.371 4.75-1.06 6.94H1.06A23.126 23.126 0 010 23.137C0 10.358 10.358 0 23.136 0c12.778 0 23.136 10.358 23.136 23.136zM5.554 38.174a23.17 23.17 0 01-3.085-4.627h41.334a23.17 23.17 0 01-3.085 4.627H5.554zm3.698 3.47a23.033 23.033 0 0013.884 4.628c5.21 0 10.017-1.722 13.884-4.627H9.252z" fill="#FFC940"/><path d="M64.066 30.327c-2.388 0-4.269-.736-5.643-2.208l1.353-1.874c1.194 1.277 2.659 1.916 4.394 1.916.93 0 1.624-.187 2.082-.562.472-.375.708-.82.708-1.333 0-.527-.278-.944-.833-1.25-.555-.318-1.228-.568-2.02-.749a32.34 32.34 0 01-2.394-.645 4.603 4.603 0 01-2.02-1.27c-.555-.597-.833-1.368-.833-2.312 0-1.166.465-2.13 1.395-2.894.944-.777 2.166-1.166 3.665-1.166 2.138 0 3.873.645 5.206 1.936l-1.396 1.812c-1.055-1.055-2.394-1.583-4.018-1.583-.722 0-1.298.16-1.729.48-.416.305-.624.721-.624 1.249 0 .347.146.638.437.874.306.236.694.43 1.166.583.472.14.993.278 1.562.417.583.139 1.159.312 1.728.52a7.53 7.53 0 011.583.73c.472.29.853.693 1.145 1.207.305.514.458 1.124.458 1.832 0 1.25-.451 2.277-1.354 3.082-.902.805-2.241 1.208-4.018 1.208zm13.634 0c-1.972 0-3.471-.514-4.499-1.541-1.013-1.027-1.52-2.423-1.52-4.186v-8.412h2.457v8.33c0 1.124.306 2.012.917 2.664.624.653 1.506.98 2.644.98 1.138 0 2.013-.327 2.624-.98.61-.652.916-1.54.916-2.665v-8.329h2.457v8.392c0 1.777-.514 3.179-1.54 4.206-1.014 1.027-2.5 1.54-4.457 1.54zm20.983-.25H96.33l-7.246-9.912v9.912h-2.436V16.188h2.498l7.1 9.641v-9.64h2.437v13.888zm10.162.25c-2.027 0-3.727-.667-5.101-2-1.361-1.346-2.041-3.074-2.041-5.184 0-2.11.68-3.831 2.041-5.164 1.374-1.347 3.074-2.02 5.101-2.02 2.221 0 3.977.916 5.268 2.749l-1.457.812a4.595 4.595 0 00-1.624-1.458 4.463 4.463 0 00-2.187-.562c-1.527 0-2.804.535-3.831 1.603-1.013 1.055-1.52 2.402-1.52 4.04s.507 2.991 1.52 4.06c1.027 1.055 2.304 1.583 3.831 1.583.778 0 1.506-.18 2.187-.542a4.52 4.52 0 001.624-1.478l1.478.812c-1.346 1.832-3.109 2.749-5.289 2.749zm17.57-.25h-2.041l-3.54-5.518h-2.769v5.518h-1.728V16.188h5.58c1.291 0 2.339.382 3.144 1.146.805.763 1.208 1.776 1.208 3.04 0 1.193-.347 2.144-1.041 2.852-.694.708-1.548 1.104-2.561 1.187l3.748 5.664zm-4.706-7.038c.819 0 1.485-.25 1.999-.75.513-.5.77-1.138.77-1.916 0-.777-.257-1.409-.77-1.894-.514-.5-1.18-.75-1.999-.75h-3.644v5.31h3.644zm16.395 7.038h-9.099V16.188h9.099v1.541h-7.371v4.477h7.226v1.54h-7.226v4.79h7.371v1.54zm7.503 0h-4.747V16.188h4.747c2.124 0 3.839.66 5.144 1.978 1.318 1.32 1.978 2.978 1.978 4.977 0 2.013-.66 3.672-1.978 4.976-1.305 1.305-3.02 1.958-5.144 1.958zm0-1.541c1.638 0 2.936-.514 3.894-1.541.958-1.027 1.437-2.311 1.437-3.852 0-1.555-.472-2.846-1.416-3.873-.944-1.027-2.249-1.54-3.915-1.54h-3.019v10.806h3.019zm11.561 1.541h-1.728V16.188h1.728v13.889zm8.417 0h-1.728V17.729h-4.393v-1.54H170v1.54h-4.415v12.348z" fill="#000"/></svg>
